polaris-icons/icons/new-icons/DecimalMinor.svg

<svg width="20" height="20" viewBox="0 0 20 20" fill="none" xmlns="http://www.w3.org/2000/svg">
<path fill-rule="evenodd" clip-rule="evenodd" d="M13.6285 3.51121C14.0366 3.58219 14.3099 3.97054 14.2389 4.37863L13.8265 6.75H16C16.4142 6.75 16.75 7.08579 16.75 7.5C16.75 7.91421 16.4142 8.25 16 8.25H13.5656L12.9569 11.75H15.5C15.9142 11.75 16.25 12.0858 16.25 12.5C16.25 12.9142 15.9142 13.25 15.5 13.25H12.6961L12.2389 15.8786C12.1679 16.2867 11.7796 16.56 11.3715 16.489C10.9634 16.4181 10.6901 16.0297 10.7611 15.6216L11.1735 13.25H7.69606L7.23891 15.8786C7.16794 16.2867 6.77958 16.56 6.37149 16.489C5.9634 16.4181 5.69012 16.0297 5.76109 15.6216L6.17354 13.25H4C3.58579 13.25 3.25 12.9142 3.25 12.5C3.25 12.0858 3.58579 11.75 4 11.75H6.43441L7.04311 8.25H4.5C4.08579 8.25 3.75 7.91421 3.75 7.5C3.75 7.08579 4.08579 6.75 4.5 6.75H7.30398L7.76109 4.12162C7.83206 3.71353 8.22042 3.44024 8.6285 3.51121C9.03659 3.58219 9.30988 3.97054 9.23891 4.37863L8.8265 6.75H12.304L12.7611 4.12162C12.8321 3.71353 13.2204 3.44024 13.6285 3.51121ZM11.4344 11.75H7.95693L8.56563 8.25H12.0431L11.4344 11.75Z" fill="#4A4A4A"/>
<path d="M15.5 17C16.3284 17 17 16.3284 17 15.5C17 14.6716 16.3284 14 15.5 14C14.6716 14 14 14.6716 14 15.5C14 16.3284 14.6716 17 15.5 17Z" fill="#4A4A4A"/>
</svg>

<svg viewBox="0 0 20 20" xmlns="http://www.w3.org/2000/svg"><path fill-rule="evenodd" d="M13.629 3.511a.75.75 0 0 1 .61.868l-.413 2.371h2.174a.75.75 0 0 1 0 1.5h-2.434l-.61 3.5h2.544a.75.75 0 0 1 0 1.5h-2.804l-.457 2.629a.75.75 0 1 1-1.478-.257l.413-2.372h-3.478l-.457 2.629a.75.75 0 1 1-1.478-.257l.413-2.372h-2.174a.75.75 0 0 1 0-1.5h2.434l.61-3.5h-2.544a.75.75 0 0 1 0-1.5h2.804l.457-2.628a.75.75 0 1 1 1.478.257l-.413 2.371h3.478l.457-2.628a.75.75 0 0 1 .868-.61Zm-2.195 8.239h-3.477l.609-3.5h3.477l-.609 3.5Z" fill="#5C5F62"/><path d="M15.5 17a1.5 1.5 0 1 0 0-3 1.5 1.5 0 0 0 0 3Z" fill="#5C5F62"/></svg>
